src/resources/assets/filter.svg

<svg xmlns="http://www.w3.org/2000/svg" width="16" height="16"><path d="M 2 3.5 C 2 3.222656 2.222656 3 2.5 3 L 13.5 3 C 13.777344 3 14 3.222656 14 3.5 C 14 3.777344 13.777344 4 13.5 4 L 2.5 4 C 2.222656 4 2 3.777344 2 3.5 Z M 4 7.5 C 4 7.222656 4.222656 7 4.5 7 L 11.5 7 C 11.777344 7 12 7.222656 12 7.5 C 12 7.777344 11.777344 8 11.5 8 L 4.5 8 C 4.222656 8 4 7.777344 4 7.5 Z M 6 11.5 C 6 11.222656 6.222656 11 6.5 11 L 9.5 11 C 9.777344 11 10 11.222656 10 11.5 C 10 11.777344 9.777344 12 9.5 12 L 6.5 12 C 6.222656 12 6 11.777344 6 11.5 Z M 6 11.5" fill="#ddd"/></svg>

<svg xmlns="http://www.w3.org/2000/svg" width="16" height="16"><path d="M2 3.5c0-.277.223-.5.5-.5h11c.277 0 .5.223.5.5s-.223.5-.5.5h-11a.498.498 0 01-.5-.5zm2 4c0-.277.223-.5.5-.5h7c.277 0 .5.223.5.5s-.223.5-.5.5h-7a.498.498 0 01-.5-.5zm2 4c0-.277.223-.5.5-.5h3c.277 0 .5.223.5.5s-.223.5-.5.5h-3a.498.498 0 01-.5-.5zm0 0" fill="#ddd"/></svg>
